assets/1. 1-F/Envelope/Color/Envelope-color.svg

<svg width="100%" height="100%" viewBox="0 0 32 32" fill="none" xmlns="http://www.w3.org/2000/svg">
<rect x="2.09375" y="10.0625" width="27.8125" height="19.9375" rx="1.75" fill="url(#paint0_linear_18_21762)"/>
<rect x="2.09375" y="10.0625" width="27.8125" height="19.9375" rx="1.75" fill="url(#paint1_linear_18_21762)"/>
<path d="M16 10.0625V30H3.84375C2.87726 30 2.09375 29.2165 2.09375 28.25V11.8125C2.09375 10.846 2.87726 10.0625 3.84375 10.0625H16Z" fill="url(#paint2_linear_18_21762)"/>
<path d="M16 10.0625V30H3.84375C2.87726 30 2.09375 29.2165 2.09375 28.25V11.8125C2.09375 10.846 2.87726 10.0625 3.84375 10.0625H16Z" fill="url(#paint3_radial_18_21762)"/>
<path d="M16 10.0625V30H28.1562C29.1227 30 29.9062 29.2165 29.9062 28.25V11.8125C29.9062 10.846 29.1227 10.0625 28.1562 10.0625H16Z" fill="url(#paint4_linear_18_21762)"/>
<path d="M16 10.0625V30H28.1562C29.1227 30 29.9062 29.2165 29.9062 28.25V11.8125C29.9062 10.846 29.1227 10.0625 28.1562 10.0625H16Z" fill="url(#paint5_linear_18_21762)"/>
<path d="M16 10.0625V30H28.1562C29.1227 30 29.9062 29.2165 29.9062 28.25V11.8125C29.9062 10.846 29.1227 10.0625 28.1562 10.0625H16Z" fill="url(#paint6_linear_18_21762)"/>
<path d="M16 10.0625V30H28.1562C29.1227 30 29.9062 29.2165 29.9062 28.25V11.8125C29.9062 10.846 29.1227 10.0625 28.1562 10.0625H16Z" fill="url(#paint7_linear_18_21762)"/>
<g filter="url(#filter0_i_18_21762)">
<path d="M2.09375 28.25C2.09375 27.9875 2.22895 27.7436 2.45151 27.6045L15.7799 19.2733C15.9097 19.1922 16.0746 19.1923 16.2043 19.2736L29.5771 27.6553C29.7819 27.7836 29.9062 28.0083 29.9062 28.25V28.25C29.9062 29.2165 29.1227 30 28.1562 30H3.84375C2.87726 30 2.09375 29.2165 2.09375 28.25V28.25Z" fill="url(#paint8_linear_18_21762)"/>
</g>
<path d="M2.09375 28.25C2.09375 27.9875 2.22895 27.7436 2.45151 27.6045L15.7799 19.2733C15.9097 19.1922 16.0746 19.1923 16.2043 19.2736L29.5771 27.6553C29.7819 27.7836 29.9062 28.0083 29.9062 28.25V28.25C29.9062 29.2165 29.1227 30 28.1562 30H3.84375C2.87726 30 2.09375 29.2165 2.09375 28.25V28.25Z" fill="url(#paint9_linear_18_21762)"/>
<path d="M2.09375 28.25C2.09375 27.9875 2.22895 27.7436 2.45151 27.6045L15.7799 19.2733C15.9097 19.1922 16.0746 19.1923 16.2043 19.2736L29.5771 27.6553C29.7819 27.7836 29.9062 28.0083 29.9062 28.25V28.25C29.9062 29.2165 29.1227 30 28.1562 30H3.84375C2.87726 30 2.09375 29.2165 2.09375 28.25V28.25Z" fill="url(#paint10_linear_18_21762)"/>
<g filter="url(#filter1_ii_18_21762)">
<path d="M2.09375 11.8125C2.09375 12.075 2.22895 12.3189 2.45151 12.458L15.7799 20.7892C15.9097 20.8703 16.0746 20.8702 16.2043 20.7889L29.5771 12.4072C29.7819 12.2789 29.9062 12.0542 29.9062 11.8125V11.8125C29.9062 10.846 29.1227 10.0625 28.1562 10.0625H3.84375C2.87726 10.0625 2.09375 10.846 2.09375 11.8125V11.8125Z" fill="url(#paint11_linear_18_21762)"/>
<path d="M2.09375 11.8125C2.09375 12.075 2.22895 12.3189 2.45151 12.458L15.7799 20.7892C15.9097 20.8703 16.0746 20.8702 16.2043 20.7889L29.5771 12.4072C29.7819 12.2789 29.9062 12.0542 29.9062 11.8125V11.8125C29.9062 10.846 29.1227 10.0625 28.1562 10.0625H3.84375C2.87726 10.0625 2.09375 10.846 2.09375 11.8125V11.8125Z" fill="url(#paint12_linear_18_21762)"/>
<path d="M2.09375 11.8125C2.09375 12.075 2.22895 12.3189 2.45151 12.458L15.7799 20.7892C15.9097 20.8703 16.0746 20.8702 16.2043 20.7889L29.5771 12.4072C29.7819 12.2789 29.9062 12.0542 29.9062 11.8125V11.8125C29.9062 10.846 29.1227 10.0625 28.1562 10.0625H3.84375C2.87726 10.0625 2.09375 10.846 2.09375 11.8125V11.8125Z" fill="url(#paint13_linear_18_21762)"/>
<path d="M2.09375 11.8125C2.09375 12.075 2.22895 12.3189 2.45151 12.458L15.7799 20.7892C15.9097 20.8703 16.0746 20.8702 16.2043 20.7889L29.5771 12.4072C29.7819 12.2789 29.9062 12.0542 29.9062 11.8125V11.8125C29.9062 10.846 29.1227 10.0625 28.1562 10.0625H3.84375C2.87726 10.0625 2.09375 10.846 2.09375 11.8125V11.8125Z" fill="url(#paint14_radial_18_21762)"/>
</g>
<defs>
<filter id="filter0_i_18_21762" x="2.09375" y="18.4624" width="27.8125" height="11.5376" filterUnits="userSpaceOnUse" color-interpolation-filters="sRGB">
<feFlood flood-opacity="0" result="BackgroundImageFix"/>
<feBlend mode="normal" in="SourceGraphic" in2="BackgroundImageFix" result="shape"/>
<feColorMatrix in="SourceAlpha" type="matrix" values="0 0 0 0 0 0 0 0 0 0 0 0 0 0 0 0 0 0 127 0" result="hardAlpha"/>
<feOffset dy="-0.75"/>
<feGaussianBlur stdDeviation="0.75"/>
<feComposite in2="hardAlpha" operator="arithmetic" k2="-1" k3="1"/>
<feColorMatrix type="matrix" values="0 0 0 0 0.819608 0 0 0 0 0.654902 0 0 0 0 0.933333 0 0 0 1 0"/>
<feBlend mode="normal" in2="shape" result="effect1_innerShadow_18_21762"/>
</filter>
<filter id="filter1_ii_18_21762" x="2.09375" y="9.9125" width="27.8125" height="11.1876" filterUnits="userSpaceOnUse" color-interpolation-filters="sRGB">
<feFlood flood-opacity="0" result="BackgroundImageFix"/>
<feBlend mode="normal" in="SourceGraphic" in2="BackgroundImageFix" result="shape"/>
<feColorMatrix in="SourceAlpha" type="matrix" values="0 0 0 0 0 0 0 0 0 0 0 0 0 0 0 0 0 0 127 0" result="hardAlpha"/>
<feOffset dy="-0.15"/>
<feGaussianBlur stdDeviation="0.225"/>
<feComposite in2="hardAlpha" operator="arithmetic" k2="-1" k3="1"/>
<feColorMatrix type="matrix" values="0 0 0 0 0.827451 0 0 0 0 0.686275 0 0 0 0 0.913725 0 0 0 1 0"/>
<feBlend mode="normal" in2="shape" result="effect1_innerShadow_18_21762"/>
<feColorMatrix in="SourceAlpha" type="matrix" values="0 0 0 0 0 0 0 0 0 0 0 0 0 0 0 0 0 0 127 0" result="hardAlpha"/>
<feOffset dy="0.25"/>
<feGaussianBlur stdDeviation="0.3"/>
<feComposite in2="hardAlpha" operator="arithmetic" k2="-1" k3="1"/>
<feColorMatrix type="matrix" values="0 0 0 0 0.870588 0 0 0 0 0.858824 0 0 0 0 0.854902 0 0 0 1 0"/>
<feBlend mode="normal" in2="effect1_innerShadow_18_21762" result="effect2_innerShadow_18_21762"/>
</filter>
<linearGradient id="paint0_linear_18_21762" x1="4.09375" y1="21.1875" x2="29.9063" y2="21" gradientUnits="userSpaceOnUse">
<stop stop-color="#DFD0E6"/>
<stop offset="1" stop-color="#EEE5F8"/>
</linearGradient>
<linearGradient id="paint1_linear_18_21762" x1="2.09375" y1="21.1262" x2="5.13196" y2="21.1262" gradientUnits="userSpaceOnUse">
<stop stop-color="#D6BABD"/>
<stop offset="1" stop-color="#DCC9DD" stop-opacity="0"/>
</linearGradient>
<linearGradient id="paint2_linear_18_21762" x1="10.8374" y1="23.0044" x2="10.0755" y2="21.8173" gradientUnits="userSpaceOnUse">
<stop offset="0.113759" stop-color="#DAC3DF"/>
<stop offset="1" stop-color="#DAC3DF" stop-opacity="0"/>
</linearGradient>
<radialGradient id="paint3_radial_18_21762" cx="0" cy="0" r="1" gradientUnits="userSpaceOnUse" gradientTransform="translate(12.1236 17.4119) rotate(123.69) scale(2.72523 19.1395)">
<stop offset="0.342267" stop-color="#C8A6D7"/>
<stop offset="1" stop-color="#D1BBDD" stop-opacity="0"/>
</radialGradient>
<linearGradient id="paint4_linear_18_21762" x1="21.0937" y1="23.3125" x2="21.9245" y2="21.8173" gradientUnits="userSpaceOnUse">
<stop offset="0.113759" stop-color="#F6EFFE"/>
<stop offset="1" stop-color="#F3EAFD" stop-opacity="0"/>
</linearGradient>
<linearGradient id="paint5_linear_18_21762" x1="20.1563" y1="17.9688" x2="21.2187" y2="19.4063" gradientUnits="userSpaceOnUse">
<stop stop-color="#E3CDF7"/>
<stop offset="1" stop-color="#E9D9F8" stop-opacity="0"/>
</linearGradient>
<linearGradient id="paint6_linear_18_21762" x1="30.0937" y1="23.5937" x2="26.375" y2="23.5937" gradientUnits="userSpaceOnUse">
<stop stop-color="#F7F3FB"/>
<stop offset="1" stop-color="#F0E9F8" stop-opacity="0"/>
</linearGradient>
<linearGradient id="paint7_linear_18_21762" x1="30.0938" y1="23.5937" x2="28.8684" y2="23.5937" gradientUnits="userSpaceOnUse">
<stop offset="0.199295" stop-color="#EBE9ED"/>
<stop offset="1" stop-color="#EBE9ED" stop-opacity="0"/>
</linearGradient>
<linearGradient id="paint8_linear_18_21762" x1="16" y1="31.75" x2="16" y2="20.9375" gradientUnits="userSpaceOnUse">
<stop stop-color="#DDC5F1"/>
<stop offset="1" stop-color="#E6DAF1"/>
</linearGradient>
<linearGradient id="paint9_linear_18_21762" x1="7.48609" y1="24.1377" x2="7.94242" y2="24.8221" gradientUnits="userSpaceOnUse">
<stop offset="0.0734082" stop-color="#DDC2C8"/>
<stop offset="1" stop-color="#DFCDDA" stop-opacity="0"/>
</linearGradient>
<linearGradient id="paint10_linear_18_21762" x1="22.5808" y1="23.1898" x2="22.294" y2="23.6372" gradientUnits="userSpaceOnUse">
<stop offset="0.139796" stop-color="#F8F3FD"/>
<stop offset="1" stop-color="#F1EAF9" stop-opacity="0"/>
</linearGradient>
<linearGradient id="paint11_linear_18_21762" x1="16" y1="10.0625" x2="16" y2="20.85" gradientUnits="userSpaceOnUse">
<stop stop-color="#E9E4E9"/>
<stop offset="1" stop-color="#E7DCF0"/>
</linearGradient>
<linearGradient id="paint12_linear_18_21762" x1="9.8097" y1="16.9092" x2="13.4243" y2="10.4241" gradientUnits="userSpaceOnUse">
<stop stop-color="#E1D5E7"/>
<stop offset="1" stop-color="#E1D5E7" stop-opacity="0"/>
</linearGradient>
<linearGradient id="paint13_linear_18_21762" x1="2.09375" y1="11.6999" x2="5.02564" y2="11.6999" gradientUnits="userSpaceOnUse">
<stop stop-color="#E1C1BC"/>
<stop offset="1" stop-color="#E1C1BC" stop-opacity="0"/>
<stop offset="1" stop-color="#E9D1CD" stop-opacity="0"/>
</linearGradient>
<radialGradient id="paint14_radial_18_21762" cx="0" cy="0" r="1" gradientUnits="userSpaceOnUse" gradientTransform="translate(27.4575 14.1451) rotate(-138.233) scale(6.12906 27.1579)">
<stop stop-color="#FBF9FE"/>
<stop offset="1" stop-color="#F0ECF1" stop-opacity="0"/>
</radialGradient>
</defs>
</svg>

<svg width="100%" height="100%" viewBox="0 0 32 32" xmlns="http://www.w3.org/2000/svg"><rect width="27.813" height="19.938" x="2.094" y="10.063" fill="url(#a)" rx="1.75"/><rect width="27.813" height="19.938" x="2.094" y="10.063" fill="url(#b)" rx="1.75"/><path fill="url(#c)" d="M16 10.063V30H3.844a1.75 1.75 0 0 1-1.75-1.75V11.813c0-.967.783-1.75 1.75-1.75z"/><path fill="url(#d)" d="M16 10.063V30H3.844a1.75 1.75 0 0 1-1.75-1.75V11.813c0-.967.783-1.75 1.75-1.75z"/><path fill="url(#e)" d="M16 10.063V30h12.156a1.75 1.75 0 0 0 1.75-1.75V11.813a1.75 1.75 0 0 0-1.75-1.75z"/><path fill="url(#f)" d="M16 10.063V30h12.156a1.75 1.75 0 0 0 1.75-1.75V11.813a1.75 1.75 0 0 0-1.75-1.75z"/><path fill="url(#g)" d="M16 10.063V30h12.156a1.75 1.75 0 0 0 1.75-1.75V11.813a1.75 1.75 0 0 0-1.75-1.75z"/><path fill="url(#h)" d="M16 10.063V30h12.156a1.75 1.75 0 0 0 1.75-1.75V11.813a1.75 1.75 0 0 0-1.75-1.75z"/><g filter="url(#i)"><path fill="url(#j)" d="M2.094 28.25c0-.262.135-.506.358-.645l13.328-8.332a.4.4 0 0 1 .424 0l13.373 8.382c.205.129.33.353.33.595a1.75 1.75 0 0 1-1.75 1.75H3.843a1.75 1.75 0 0 1-1.75-1.75"/></g><path fill="url(#k)" d="M2.094 28.25c0-.262.135-.506.358-.645l13.328-8.332a.4.4 0 0 1 .424 0l13.373 8.382c.205.129.33.353.33.595a1.75 1.75 0 0 1-1.75 1.75H3.843a1.75 1.75 0 0 1-1.75-1.75"/><path fill="url(#l)" d="M2.094 28.25c0-.262.135-.506.358-.645l13.328-8.332a.4.4 0 0 1 .424 0l13.373 8.382c.205.129.33.353.33.595a1.75 1.75 0 0 1-1.75 1.75H3.843a1.75 1.75 0 0 1-1.75-1.75"/><g filter="url(#m)"><path fill="url(#n)" d="M2.094 11.813c0 .262.135.506.358.645l13.328 8.331a.4.4 0 0 0 .424 0l13.373-8.382a.7.7 0 0 0 .33-.594 1.75 1.75 0 0 0-1.75-1.75H3.843a1.75 1.75 0 0 0-1.75 1.75"/><path fill="url(#o)" d="M2.094 11.813c0 .262.135.506.358.645l13.328 8.331a.4.4 0 0 0 .424 0l13.373-8.382a.7.7 0 0 0 .33-.594 1.75 1.75 0 0 0-1.75-1.75H3.843a1.75 1.75 0 0 0-1.75 1.75"/><path fill="url(#p)" d="M2.094 11.813c0 .262.135.506.358.645l13.328 8.331a.4.4 0 0 0 .424 0l13.373-8.382a.7.7 0 0 0 .33-.594 1.75 1.75 0 0 0-1.75-1.75H3.843a1.75 1.75 0 0 0-1.75 1.75"/><path fill="url(#q)" d="M2.094 11.813c0 .262.135.506.358.645l13.328 8.331a.4.4 0 0 0 .424 0l13.373-8.382a.7.7 0 0 0 .33-.594 1.75 1.75 0 0 0-1.75-1.75H3.843a1.75 1.75 0 0 0-1.75 1.75"/></g><defs><linearGradient id="a" x1="4.094" x2="29.906" y1="21.188" y2="21" gradientUnits="userSpaceOnUse"><stop stop-color="#DFD0E6"/><stop offset="1" stop-color="#EEE5F8"/></linearGradient><linearGradient id="b" x1="2.094" x2="5.132" y1="21.126" y2="21.126" gradientUnits="userSpaceOnUse"><stop stop-color="#D6BABD"/><stop offset="1" stop-color="#DCC9DD" stop-opacity="0"/></linearGradient><linearGradient id="c" x1="10.837" x2="10.075" y1="23.004" y2="21.817" gradientUnits="userSpaceOnUse"><stop offset=".114" stop-color="#DAC3DF"/><stop offset="1" stop-color="#DAC3DF" stop-opacity="0"/></linearGradient><linearGradient id="e" x1="21.094" x2="21.924" y1="23.313" y2="21.817" gradientUnits="userSpaceOnUse"><stop offset=".114" stop-color="#F6EFFE"/><stop offset="1" stop-color="#F3EAFD" stop-opacity="0"/></linearGradient><linearGradient id="f" x1="20.156" x2="21.219" y1="17.969" y2="19.406" gradientUnits="userSpaceOnUse"><stop stop-color="#E3CDF7"/><stop offset="1" stop-color="#E9D9F8" stop-opacity="0"/></linearGradient><linearGradient id="g" x1="30.094" x2="26.375" y1="23.594" y2="23.594" gradientUnits="userSpaceOnUse"><stop stop-color="#F7F3FB"/><stop offset="1" stop-color="#F0E9F8" stop-opacity="0"/></linearGradient><linearGradient id="h" x1="30.094" x2="28.868" y1="23.594" y2="23.594" gradientUnits="userSpaceOnUse"><stop offset=".199" stop-color="#EBE9ED"/><stop offset="1" stop-color="#EBE9ED" stop-opacity="0"/></linearGradient><linearGradient id="j" x1="16" x2="16" y1="31.75" y2="20.938" gradientUnits="userSpaceOnUse"><stop stop-color="#DDC5F1"/><stop offset="1" stop-color="#E6DAF1"/></linearGradient><linearGradient id="k" x1="7.486" x2="7.942" y1="24.138" y2="24.822" gradientUnits="userSpaceOnUse"><stop offset=".073" stop-color="#DDC2C8"/><stop offset="1" stop-color="#DFCDDA" stop-opacity="0"/></linearGradient><linearGradient id="l" x1="22.581" x2="22.294" y1="23.19" y2="23.637" gradientUnits="userSpaceOnUse"><stop offset=".14" stop-color="#F8F3FD"/><stop offset="1" stop-color="#F1EAF9" stop-opacity="0"/></linearGradient><linearGradient id="n" x1="16" x2="16" y1="10.063" y2="20.85" gradientUnits="userSpaceOnUse"><stop stop-color="#E9E4E9"/><stop offset="1" stop-color="#E7DCF0"/></linearGradient><linearGradient id="o" x1="9.81" x2="13.424" y1="16.909" y2="10.424" gradientUnits="userSpaceOnUse"><stop stop-color="#E1D5E7"/><stop offset="1" stop-color="#E1D5E7" stop-opacity="0"/></linearGradient><linearGradient id="p" x1="2.094" x2="5.026" y1="11.7" y2="11.7" gradientUnits="userSpaceOnUse"><stop stop-color="#E1C1BC"/><stop offset="1" stop-color="#E1C1BC" stop-opacity="0"/><stop offset="1" stop-color="#E9D1CD" stop-opacity="0"/></linearGradient><radialGradient id="d" cx="0" cy="0" r="1" gradientTransform="rotate(123.69 1.403 11.95)scale(2.72523 19.1395)" gradientUnits="userSpaceOnUse"><stop offset=".342" stop-color="#C8A6D7"/><stop offset="1" stop-color="#D1BBDD" stop-opacity="0"/></radialGradient><radialGradient id="q" cx="0" cy="0" r="1" gradientTransform="rotate(-138.233 16.427 1.835)scale(6.12906 27.1579)" gradientUnits="userSpaceOnUse"><stop stop-color="#FBF9FE"/><stop offset="1" stop-color="#F0ECF1" stop-opacity="0"/></radialGradient><filter id="i" width="27.813" height="11.538" x="2.094" y="18.462" color-interpolation-filters="sRGB" filterUnits="userSpaceOnUse"><feFlood flood-opacity="0" result="BackgroundImageFix"/><feBlend in="SourceGraphic" in2="BackgroundImageFix" result="shape"/><feColorMatrix in="SourceAlpha" result="hardAlpha" values="0 0 0 0 0 0 0 0 0 0 0 0 0 0 0 0 0 0 127 0"/><feOffset dy="-.75"/><feGaussianBlur stdDeviation=".75"/><feComposite in2="hardAlpha" k2="-1" k3="1" operator="arithmetic"/><feColorMatrix values="0 0 0 0 0.819608 0 0 0 0 0.654902 0 0 0 0 0.933333 0 0 0 1 0"/><feBlend in2="shape" result="effect1_innerShadow_18_21762"/></filter><filter id="m" width="27.813" height="11.188" x="2.094" y="9.912" color-interpolation-filters="sRGB" filterUnits="userSpaceOnUse"><feFlood flood-opacity="0" result="BackgroundImageFix"/><feBlend in="SourceGraphic" in2="BackgroundImageFix" result="shape"/><feColorMatrix in="SourceAlpha" result="hardAlpha" values="0 0 0 0 0 0 0 0 0 0 0 0 0 0 0 0 0 0 127 0"/><feOffset dy="-.15"/><feGaussianBlur stdDeviation=".225"/><feComposite in2="hardAlpha" k2="-1" k3="1" operator="arithmetic"/><feColorMatrix values="0 0 0 0 0.827451 0 0 0 0 0.686275 0 0 0 0 0.913725 0 0 0 1 0"/><feBlend in2="shape" result="effect1_innerShadow_18_21762"/><feColorMatrix in="SourceAlpha" result="hardAlpha" values="0 0 0 0 0 0 0 0 0 0 0 0 0 0 0 0 0 0 127 0"/><feOffset dy=".25"/><feGaussianBlur stdDeviation=".3"/><feComposite in2="hardAlpha" k2="-1" k3="1" operator="arithmetic"/><feColorMatrix values="0 0 0 0 0.870588 0 0 0 0 0.858824 0 0 0 0 0.854902 0 0 0 1 0"/><feBlend in2="effect1_innerShadow_18_21762" result="effect2_innerShadow_18_21762"/></filter></defs></svg>
